X:1
T:Title
%%score ( 1 2 ) { 3 | 4 }
L:1/8
Q:1/4=92
M:9/8
K:Eb
V:1 treble nm="Grand Piano, Soprano"
V:2 treble 
V:3 bass nm="Choir Pad, Believe and Live"
V:4 bass 
V:1
 E[EG]F [EG] [GB]2- [GB] [GB]2 | [G=A][Ac][GB] [_GA] [=GB]2- [GB] [EG]2 | %2
w: By~Tullius~Clinton~O�Kane * * * * * *||
 [EG][EG]F [EG] [Ec]2- [Ec] [Ec]2 | [E=B][Ec][E_B] [EG] [DF]2- [DF]2- [DF]/ z/ | %4
w: ||
 [EG]/[DF]/E[EG] [GB] [Ge]2- [Ge][Ge][Fd] | [Ee][Ee][Ed] [Ec] c2- c B2 | %6
w: ||
 [EG][Ac][A=B] [Ec] [DF]2- [DF][DF][EG] | [FA][Dc][EB] [B,D] [B,E]2- [B,E]2- [B,E]/ z/ | %8
w: ||
 EED E [Ec]2- [Ec]3/2 z/ [D=B] | [Ec][Ac][Fd] [Fe] e2- e B2 | %10
w: ||
 [GB][FA][=EG] [FA] [DF]2- [DF]2 [_EG] | [FA][Ac][GB] [FA] [EG]2- [EG]2- [EG]/ z/ | %12
w: ||
 [EG]/[DF]/E[EG] [GB] [Ge]2- [Ge]3/2 z/ [Fd] | [Ee][Ae][Ad] [Ac] [Ac]2- [Ac] [GB]2 | %14
w: ||
 [EG][Ec][D=B] [Ec] [DF]2- [DF]3/2 z/ [EG] | [FA][Dc][EB] [B,D] [B,E]2- [B,E]3- | [B,E]3 z3 z3 |] %17
w: |||
V:2
 x9 | x9 | x9 | x9 | x9 | z3 z E2- E2- E/ z/ | x9 | x9 | x9 | z3 z G2- G2- G/ z/ | x9 | x9 | x9 | %13
 x9 | x9 | x9 | x9 |] %17
V:3
 G,B,B, B, E2- E[K:treble] E2 | EEE E E2- E[K:bass] B,2 | B,B,B, B, A,2- A,/ z/ A,2 | %3
 A,A,B, B, B,2- B,2- B,/ z/ | B,G,B, B, B,2- B, B,2 | B,CB, A, A,2- A, G,2 | %6
 B,[K:treble]ED C B,2- B,[K:bass] B,2 | B,A,G, A, G,2- G,2- G,/ z/ | z3 B,A,A, A,A,A, | %9
 A,A,B, CB,B, B, E2 | z3 B,B,B, B,B,B, | B,B,B, B,B,B, B, B,2 | z3 B,B,B, B,B,B, | %13
 B,[K:treble]CD EEE E E2 | z3[K:bass] G,B,B, B,B,B, | B,A,G, B, G,2- G,3- | G,3 z3 z3 |] %17
V:4
 E,E,D, E, E,2- E, E,2 | E,E,E, E, E,2- E, E,2 | E,E,D, .E,3 z3 | z2 G, E, B,,2- B,,2- B,,/ z/ | %4
 B,,E,E, E, E,2- E,E,F, | G,A,A, z E,2- E,2- E,/ z/ | E,A,,A,, A,, B,,2- B,, B,,2 | %7
 B,,B,,B,, B,, E,2- E,2- E,/ z/ | z3 G,,A,,A,, A,,A,,A,, | A,,A,,A,, A,,E,E, E, E,2 | %10
 z3 B,,B,,B,, B,,B,,B,, | B,,B,,B,, B,,E,E, E, E,2 | z3 E,E,E, E,E,F, | G,A,A, A,E,E, E, E,2 | %14
 z3 E,B,,B,, B,,B,,B,, | B,,B,,B,, B,, E,2- E,3- | E,3 z3 z3 |] %17

